X: 1
T:The Festival March
M:9/8
L:1/8
Q:80
C:R. Ackroyd
S:March 9/8
K:HP
|: e|
{A}e3/2f/2{g}c{gef}e3{A}e2a|
f{g}d2f{gef}e2{AGAG}A3|
{gcd}c3/2{g}B/2{d}c{ag}a3{AGAG}A2a|  !
{g}a3/2e/2c{g}B3{GdGe}B2e| |
{A}e3/2f/2{g}c{gef}e3{A}e2a|
f{g}d2f{gef}e2{AGAG}A3|  !
{gcd}c3/2{g}B/2{d}c{ag}a3{BG}B2a|
{cd}c3/2{g}B/2{d}c{g}A3{GAG}A2:|
e|  !
{g}A3/2{d}c/2e{GdG}f3{g}f3/2d/2f|
{g}f2a{g}a{ef}e3{AGAG}A3|
{gcd}c3/2{g}B/2{d}c{ag}a3{AGAG}A2a|  !
{g}a3/2e/2c{g}B3{GdGe}B3| |
{g}A3/2{d}c/2e{GdG}f3{g}f3/2d/2f|
{g}f2a{g}a{ef}e3{AGAG}A3|  !
{gcd}c3/2{g}B/2{d}c{ag}a3{BG}B2a|
{cd}c3/2{g}B/2{d}c{g}A3{GAG}A2:|
